src/assets/img/product-card-tumble.svg

<svg width="20" height="20" viewBox="0 0 20 20" fill="none" xmlns="http://www.w3.org/2000/svg">
<g clip-path="url(#clip0_2508_1013)">
<path d="M19.1667 18.5775V1.42255L19.878 0.711299C20.0407 0.548525 20.0407 0.284853 19.878 0.122119C19.7152 -0.0406543 19.4515 -0.0406543 19.2888 0.122119L18.5775 0.833369H1.42255L0.71126 0.12208C0.548487 -0.0406934 0.284815 -0.0406934 0.12208 0.12208C-0.0406543 0.284853 -0.0406934 0.548525 0.12208 0.71126L0.833331 1.42251V18.5775L0.12208 19.2888C-0.0406934 19.4515 -0.0406934 19.7152 0.12208 19.8779C0.203447 19.9593 0.310088 20 0.41669 20C0.523291 20 0.629893 19.9593 0.711299 19.8779L1.42255 19.1667H18.5775L19.2888 19.8779C19.3701 19.9593 19.4768 20 19.5834 20C19.69 20 19.7966 19.9593 19.878 19.8779C20.0408 19.7152 20.0408 19.4515 19.878 19.2888L19.1667 18.5775ZM10 1.66669H17.7442L15.5812 3.82962C14.102 2.4904 12.1479 1.66669 10 1.66669C7.85212 1.66669 5.89798 2.4904 4.4188 3.82962L2.25587 1.66669H10ZM9.41084 10L4.41868 14.9921C3.22993 13.6645 2.50001 11.918 2.50001 10C2.50001 8.08204 3.22993 6.33552 4.41868 5.0079L9.41084 10ZM5.0079 4.41868C6.33552 3.22993 8.08205 2.50001 10 2.50001C11.918 2.50001 13.6645 3.22993 14.9921 4.41868L10 9.41083L5.0079 4.41868ZM10 10.5892L14.9921 15.5813C13.6645 16.7701 11.918 17.5 10 17.5C8.08205 17.5 6.33552 16.7701 5.0079 15.5813L10 10.5892ZM10.5892 10L15.5813 5.0079C16.7701 6.33552 17.5 8.08204 17.5 10C17.5 11.918 16.7701 13.6645 15.5813 14.9921L10.5892 10ZM1.66669 10V2.25587L3.82962 4.4188C2.4904 5.89798 1.66669 7.85212 1.66669 10C1.66669 12.1479 2.4904 14.102 3.82962 15.5812L1.66669 17.7441V10ZM10 18.3333H2.25587L4.4188 16.1704C5.89798 17.5096 7.85212 18.3333 10 18.3333C12.1479 18.3333 14.102 17.5096 15.5812 16.1704L17.7442 18.3333H10ZM18.3333 10V17.7441L16.1704 15.5812C17.5096 14.102 18.3333 12.1479 18.3333 10C18.3333 7.85212 17.5096 5.89798 16.1704 4.4188L18.3333 2.25587V10Z" fill="#787A80"/>
</g>
<defs>
<clipPath id="clip0_2508_1013">
<rect width="20" height="20" fill="white"/>
</clipPath>
</defs>
</svg>

<svg width="20" height="20" fill="none" xmlns="http://www.w3.org/2000/svg"><g clip-path="url(#a)"><path d="M19.167 18.578V1.422l.711-.712a.417.417 0 1 0-.59-.589l-.71.711H1.422L.71.123A.416.416 0 1 0 .122.71l.711.712v17.155l-.71.71a.416.416 0 1 0 .588.59l.712-.711h17.154l.712.71a.415.415 0 0 0 .589 0 .416.416 0 0 0 0-.588l-.711-.712ZM10 1.666h7.744L15.581 3.83A8.29 8.29 0 0 0 10 1.667 8.29 8.29 0 0 0 4.419 3.83L2.256 1.667H10ZM9.41 10 4.42 14.992A7.46 7.46 0 0 1 2.5 10a7.46 7.46 0 0 1 1.919-4.992L9.41 10ZM5.009 4.419A7.46 7.46 0 0 1 10 2.5a7.46 7.46 0 0 1 4.992 1.919L10 9.41 5.008 4.419ZM10 10.589l4.992 4.992A7.46 7.46 0 0 1 10 17.5a7.46 7.46 0 0 1-4.992-1.919L10 10.59Zm.59-.589 4.991-4.992A7.46 7.46 0 0 1 17.5 10a7.46 7.46 0 0 1-1.919 4.992L10.59 10Zm-8.923 0V2.256L3.83 4.419A8.29 8.29 0 0 0 1.667 10a8.29 8.29 0 0 0 2.163 5.581l-2.163 2.163V10ZM10 18.333H2.256l2.163-2.163A8.29 8.29 0 0 0 10 18.333a8.29 8.29 0 0 0 5.581-2.163l2.163 2.163H10ZM18.333 10v7.744l-2.163-2.163A8.29 8.29 0 0 0 18.333 10a8.29 8.29 0 0 0-2.163-5.581l2.163-2.163V10Z" fill="#787A80"/></g><defs><clipPath id="a"><path fill="#fff" d="M0 0h20v20H0z"/></clipPath></defs></svg>
